X:106
M:C
L:1/8
Q:1/4=80
K:D Minor
f|d>cA>G F2 G>A|B>GA>F D2 D<f|d>c AG F2 G>A|B>GA>F D2 D:|
^c|d>ef>d e2 ^cA|d>fed =c2 BA|d>ef>g e2 f>d|cA cd/e/ f2 f/g/a/b/|
a>gf>e (d2 d)f|d>cAG F2 G>A|B>GAF D2 Df|d>cAG F2 G>A|

